projects/flag-game/flags/Monaco.svg

<svg viewBox="0 0 1000 800" xmlns="http://www.w3.org/2000/svg"><g fill-rule="evenodd"><path d="m0 0h1000v400h-1000zm0 0" fill="#ce1126"/><path d="m0 400h1000v400h-1000zm0 0" fill="#fff"/></g></svg>

<?xml version="1.0" encoding="UTF-8"?>
<svg xmlns="http://www.w3.org/2000/svg" xmlns:xlink="http://www.w3.org/1999/xlink" viewBox="0 0 1000 800" version="1.1">
<g id="surface795">
<path style=" stroke:none;fill-rule:evenodd;fill:rgb(80.783081%,6.666565%,14.901733%);fill-opacity:1;" d="M 0 0 L 1000 0 L 1000 400 L 0 400 Z M 0 0 "/>
<path style=" stroke:none;fill-rule:evenodd;fill:rgb(99.998474%,99.998474%,99.998474%);fill-opacity:1;" d="M 0 400 L 1000 400 L 1000 800 L 0 800 Z M 0 400 "/>
</g>
</svg>
